app/dist/common/images/zhejiang-century-g.svg

<svg height="18" viewBox="0 0 18 18" width="18" xmlns="http://www.w3.org/2000/svg"><path d="m0 0h18v18h-18z" fill="#f0f3fa"/><path d="m14 4h-10v6.46c.29-.23.74-.46 1.33-.46.94 0 1.28.89 1.34 1.33h-.67c0-.16-.27-.66-.67-.66-.66 0-.83.89-.83 1.33 0 1.07.44 1.33.67 1.33.66 0 .83-.44.83-.66h.67c0 .63-.28 1.06-.58 1.33h1.58v-4h.66v1.67h1.34v-1.67h.66v4h2v-3.33h-1v-.67h2.67zm0 6.67h-1v3.33h1zm-4.33 3.33v-1.67h-1.34v1.67z" fill="#b8462e"/></svg>

<!-- by TradingView --><svg width="18" height="18" viewBox="0 0 18 18" xmlns="http://www.w3.org/2000/svg"><path fill="#F0F3FA" d="M0 0h18v18H0z"/><path d="M14 4H4v6.46c.29-.23.74-.46 1.33-.46.94 0 1.28.89 1.34 1.33H6c0-.16-.27-.66-.67-.66-.66 0-.83.89-.83 1.33 0 1.07.44 1.33.67 1.33.66 0 .83-.44.83-.66h.67c0 .63-.28 1.06-.58 1.33h1.58v-4h.66v1.67h1.34V10h.66v4h2v-3.33h-1V10H14V4Zm0 6.67h-1V14h1v-3.33ZM9.67 14v-1.67H8.33V14h1.34Z" fill="#B8462E"/></svg>
